docs/public/x1-logo.svg

<?xml version="1.0" encoding="UTF-8" standalone="no"?>
<svg
   width="80"
   height="80"
   viewBox="192.22969 9.2 80 79.999996"
   preserveAspectRatio="xMidYMid"
   version="1.1"
   id="svg22"
   sodipodi:docname="x1-logo.svg"
   inkscape:version="1.2 (dc2aeda, 2022-05-15)"
   xmlns:inkscape="http://www.inkscape.org/namespaces/inkscape"
   xmlns:sodipodi="http://sodipodi.sourceforge.net/DTD/sodipodi-0.dtd"
   xmlns:xlink="http://www.w3.org/1999/xlink"
   xmlns="http://www.w3.org/2000/svg"
   xmlns:svg="http://www.w3.org/2000/svg">
  <sodipodi:namedview
     id="namedview24"
     pagecolor="#ffffff"
     bordercolor="#666666"
     borderopacity="1.0"
     inkscape:showpageshadow="2"
     inkscape:pageopacity="0.0"
     inkscape:pagecheckerboard="0"
     inkscape:deskcolor="#d1d1d1"
     showgrid="false"
     inkscape:zoom="1.793313"
     inkscape:cx="54.089833"
     inkscape:cy="65.800003"
     inkscape:window-width="752"
     inkscape:window-height="1078"
     inkscape:window-x="470"
     inkscape:window-y="1727"
     inkscape:window-maximized="0"
     inkscape:current-layer="g18-3" />
  <defs
     id="defs12">
    <linearGradient
       id="editing-outline-gradient"
       x1="-16.984928"
       x2="77.805122"
       y1="-49.481995"
       y2="-3.2498014"
       gradientTransform="scale(1.1448501,0.87347681)"
       gradientUnits="userSpaceOnUse">
      <stop
         offset="0"
         stop-color="#ee4208"
         id="stop2" />
      <stop
         offset="1"
         stop-color="#a8b1ff"
         id="stop4" />
    </linearGradient>
    <filter
       id="editing-outline"
       x="0"
       y="0"
       width="1"
       height="1">
      <feMorphology
         in="SourceGraphic"
         operator="dilate"
         radius="2"
         result="outline"
         id="feMorphology7" />
      <feComposite
         operator="out"
         in="outline"
         in2="SourceAlpha"
         id="feComposite9" />
    </filter>
    <filter
       id="editing-outline-5"
       x="0"
       y="0"
       width="1"
       height="1">
      <feMorphology
         in="SourceGraphic"
         operator="dilate"
         radius="2"
         result="outline"
         id="feMorphology7-1" />
      <feComposite
         operator="out"
         in="outline"
         in2="SourceAlpha"
         id="feComposite9-3" />
    </filter>
    <linearGradient
       inkscape:collect="always"
       xlink:href="#editing-outline-gradient"
       id="linearGradient76"
       gradientUnits="userSpaceOnUse"
       gradientTransform="scale(1.1448501,0.87347681)"
       x1="-16.984928"
       y1="-49.481995"
       x2="77.805122"
       y2="-3.2498014" />
  </defs>
  <g
     filter="url(#editing-outline)"
     id="g18-3"
     style="filter:url(#editing-outline-5)"
     transform="translate(-77.991175,-25.093222)">
    <g
       transform="translate(275.40875,98.587628)"
       id="g16-7">
      <path
         d="M 17.06,-22.38 4.63,-46.06 h 8.56 l 7.5,17.25 V -14.5 L 14.06,0 H 5.38 Z m 13.69,-23.68 h 8.56 L 26.88,-22.38 38.56,0 h -8.68 l -6.63,-15.81 v -14.25 z m 34.25,0 V 0 h -7.62 v -35.31 l -6.32,6.31 -5.37,-5.38 11.69,-11.68 z"
         fill="url(#editing-outline-gradient)"
         id="path14-5"
         style="fill:url(#linearGradient76)" />
    </g>
  </g>
  <style
     id="style20">text {
  font-size: 64px;
  font-family: Arial Black;
  dominant-baseline: central;
  text-anchor: middle;
}</style>
</svg>

<svg width="115.54062499999999px" height="131.6px" xmlns="http://www.w3.org/2000/svg" viewBox="192.2296875 9.200000000000003 115.54062499999999 131.6" style="background: rgba(0, 0, 0, 0);" preserveAspectRatio="xMidYMid"><defs><linearGradient id="editing-outline-gradient" x1="-0.41354545764260087" x2="1.4135454576426008" y1="0.09326335692419985" y2="0.9067366430758002"><stop offset="0" stop-color="#ee4208"></stop><stop offset="1" stop-color="#a8b1ff"></stop></linearGradient><filter id="editing-outline" x="-100%" y="-100%" width="300%" height="300%"><feMorphology in="SourceGraphic" operator="dilate" radius="1" result="outline"></feMorphology><feComposite operator="out" in="outline" in2="SourceAlpha"></feComposite></filter></defs><g filter="url(#editing-outline)"><g transform="translate(215.18501567840576, 98.03000068664551)"><path d="M17.06-22.38L4.63-46.06L13.19-46.06L20.69-28.81L20.69-14.50L14.06 0L5.38 0L17.06-22.38ZM30.75-46.06L39.31-46.06L26.88-22.38L38.56 0L29.88 0L23.25-15.81L23.25-30.06L30.75-46.06ZM65-46.06L65 0L57.38 0L57.38-35.31L51.06-29L45.69-34.38L57.38-46.06L65-46.06Z" fill="url(#editing-outline-gradient)"></path></g></g><style>text {
  font-size: 64px;
  font-family: Arial Black;
  dominant-baseline: central;
  text-anchor: middle;
}</style></svg>
